projects/flag-game/flags/Republic of the Congo.svg

<svg viewBox="0 0 1000 667" xmlns="http://www.w3.org/2000/svg" xmlns:xlink="http://www.w3.org/1999/xlink"><clipPath id="a"><path d="m0 0h1000v666.71875h-1000zm0 0"/></clipPath><clipPath id="b"><path d="m333 0h667v666.71875h-667zm0 0"/></clipPath><g clip-path="url(#a)" fill-rule="evenodd"><path d="m0 666.667969v-666.667969h1000v666.667969zm0 0" fill="#009543"/><path d="m0 666.667969 666.667969-666.667969h333.332031v666.667969zm0 0" fill="#fbde4a"/></g><g clip-path="url(#b)"><path d="m1000 0v666.667969h-666.667969zm0 0" fill="#dc241f" fill-rule="evenodd"/></g></svg>

<?xml version="1.0" encoding="UTF-8"?>
<svg xmlns="http://www.w3.org/2000/svg" xmlns:xlink="http://www.w3.org/1999/xlink" viewBox="0 0 1000 667" version="1.1">
<defs>
<clipPath id="clip1">
  <path d="M 0 0 L 1000 0 L 1000 666.71875 L 0 666.71875 Z M 0 0 "/>
</clipPath>
<clipPath id="clip2">
  <path d="M 333 0 L 1000 0 L 1000 666.71875 L 333 666.71875 Z M 333 0 "/>
</clipPath>
</defs>
<g id="surface965">
<g clip-path="url(#clip1)" clip-rule="nonzero">
<path style=" stroke:none;fill-rule:evenodd;fill:rgb(0%,58.430481%,26.274109%);fill-opacity:1;" d="M 0 666.667969 L 0 0 L 1000 0 L 1000 666.667969 Z M 0 666.667969 "/>
<path style=" stroke:none;fill-rule:evenodd;fill:rgb(98.429871%,87.057495%,29.019165%);fill-opacity:1;" d="M 0 666.667969 L 666.667969 0 L 1000 0 L 1000 666.667969 Z M 0 666.667969 "/>
</g>
<g clip-path="url(#clip2)" clip-rule="nonzero">
<path style=" stroke:none;fill-rule:evenodd;fill:rgb(86.273193%,14.117432%,12.156677%);fill-opacity:1;" d="M 1000 0 L 1000 666.667969 L 333.332031 666.667969 Z M 1000 0 "/>
</g>
</g>
</svg>
